Yosa-Max-Dark/places/16x16/folder-mail.svg

<?xml version="1.0" encoding="UTF-8"?>
<svg id="svg6" version="1.1" viewBox="0 0 16 16" xmlns="http://www.w3.org/2000/svg">
 <defs id="defs3051">
  <style id="current-color-scheme" type="text/css">.ColorScheme-Text {
        color:#dfdfdf;
      }</style>
 </defs>
 <path id="path4" class="ColorScheme-Text" d="m8.0761719 0.22851562c-2.202757 0-4.0640389 0.75511866-5.5859375 2.2636719-1.5085532 1.5085532-2.2636719 3.3307961-2.2636719 5.4667969 0 2.1493536 0.75511873 3.9777746 2.2636719 5.4863276 1.5085531 1.495208 3.369835 2.242188 5.5859375 2.242188 1.1347494 0 2.1709671-0.213418 3.1054691-0.640625l-0.5625-1.361328c-0.7476006 0.373796-1.5951216 0.560547-2.5429691 0.560547-1.7622041 0-3.2561711-0.607415-4.484375-1.822266-1.2281968-1.214851-1.84375-2.7026394-1.84375-4.4648436 0-1.762197 0.6155532-3.2519456 1.84375-4.4667969 1.2282039-1.2148513 2.7221709-1.8222656 4.484375-1.8222656 1.7621969 0 3.2581241 0.6074143 4.4863281 1.8222656s1.841797 2.7045999 1.841797 4.4667969c0 1.9090551-0.47402 2.8632816-1.421875 2.8632816-0.400502 0-0.700143-0.139573-0.900391-0.419922-0.186902-0.280349-0.28125-0.5943082-0.28125-0.9414065v-5.2265625h-1.441406v0.9003906h-0.080078c-0.6808512-0.7876511-1.5345435-1.1816406-2.5625001-1.1816406-1.0413021 0-1.9359936 0.3878109-2.6835938 1.1621094-0.7476002 0.7743056-1.1210937 1.7490277-1.1210937 2.9238281 0 1.1881531 0.3734935 2.1690605 1.1210937 2.9433595 0.7476002 0.760953 1.6689662 1.140625 2.7636719 1.140625 1.2148513 0 2.1485815-0.486385 2.802734-1.460938 0.49395 0.974553 1.240937 1.460938 2.242188 1.460938 0.974553 0 1.717315-0.39399 2.224609-1.181641 0.520655-0.787651 0.779297-1.7809158 0.779297-2.9824216 0-2.1360008-0.746987-3.9582437-2.242187-5.4667969-1.495208-1.5085532-3.337947-2.2636719-5.5273441-2.2636719zm-0.1386719 5.2460938c0.6675056 0 1.2339208 0.2339208 1.7011719 0.7011718 0.4805961 0.4672511 0.7207031 1.0889828 0.7207031 1.8632813s-0.240107 1.3940771-0.7207031 1.8613281c-0.4672511 0.4672514-1.0336663 0.7011714-1.7011719 0.7011714-0.6674984 0-1.2420525-0.23392-1.7226562-0.7011714-0.4672511-0.467251-0.7011719-1.0870296-0.7011719-1.8613281s0.2339208-1.3960302 0.7011719-1.8632813c0.4806037-0.467251 1.0551578-0.7011718 1.7226562-0.7011718z" style="fill:#dfdfdf"/>
</svg>

<?xml version="1.0" encoding="UTF-8" standalone="no"?>
<svg
   xmlns:dc="http://purl.org/dc/elements/1.1/"
   xmlns:cc="http://creativecommons.org/ns#"
   xmlns:rdf="http://www.w3.org/1999/02/22-rdf-syntax-ns#"
   xmlns:svg="http://www.w3.org/2000/svg"
   xmlns="http://www.w3.org/2000/svg"
   xmlns:sodipodi="http://sodipodi.sourceforge.net/DTD/sodipodi-0.dtd"
   xmlns:inkscape="http://www.inkscape.org/namespaces/inkscape"
   viewBox="0 0 16 16"
   version="1.1"
   id="svg6"
   sodipodi:docname="folder-mail.svg"
   inkscape:version="0.92.2 5c3e80d, 2017-08-06">
  <metadata
     id="metadata10">
    <rdf:RDF>
      <cc:Work
         rdf:about="">
        <dc:format>image/svg+xml</dc:format>
        <dc:type
           rdf:resource="http://purl.org/dc/dcmitype/StillImage" />
      </cc:Work>
    </rdf:RDF>
  </metadata>
  <sodipodi:namedview
     pagecolor="#ffffff"
     bordercolor="#666666"
     borderopacity="1"
     objecttolerance="10"
     gridtolerance="10"
     guidetolerance="10"
     inkscape:pageopacity="0"
     inkscape:pageshadow="2"
     inkscape:window-width="760"
     inkscape:window-height="480"
     id="namedview8"
     showgrid="false"
     inkscape:zoom="18.264648"
     inkscape:cx="0.66342298"
     inkscape:cy="8"
     inkscape:window-x="0"
     inkscape:window-y="0"
     inkscape:window-maximized="0"
     inkscape:current-layer="svg6" />
  <defs
     id="defs3051">
    <style
       type="text/css"
       id="current-color-scheme">
      .ColorScheme-Text {
        color:#dfdfdf;
      }
      </style>
  </defs>
  <path
     style="fill:#dfdfdf;fill-opacity:1;stroke:none"
     class="ColorScheme-Text"
     d="M 8.0761719 0.22851562 C 5.8734149 0.22851562 4.012133 0.98363428 2.4902344 2.4921875 C 0.98168123 4.0007407 0.2265625 5.8229836 0.2265625 7.9589844 C 0.2265625 10.108338 0.98168123 11.936759 2.4902344 13.445312 C 3.9987875 14.94052 5.8600694 15.6875 8.0761719 15.6875 C 9.2109213 15.6875 10.247139 15.474082 11.181641 15.046875 L 10.619141 13.685547 C 9.8715404 14.059343 9.0240194 14.246094 8.0761719 14.246094 C 6.3139678 14.246094 4.8200008 13.638679 3.5917969 12.423828 C 2.3636001 11.208977 1.7480469 9.7211886 1.7480469 7.9589844 C 1.7480469 6.1967874 2.3636001 4.7070388 3.5917969 3.4921875 C 4.8200008 2.2773362 6.3139678 1.6699219 8.0761719 1.6699219 C 9.8383688 1.6699219 11.334296 2.2773362 12.5625 3.4921875 C 13.790704 4.7070388 14.404297 6.1967874 14.404297 7.9589844 C 14.404297 9.8680395 13.930277 10.822266 12.982422 10.822266 C 12.58192 10.822266 12.282279 10.682693 12.082031 10.402344 C 11.895129 10.121995 11.800781 9.8080358 11.800781 9.4609375 L 11.800781 4.234375 L 10.359375 4.234375 L 10.359375 5.1347656 L 10.279297 5.1347656 C 9.5984458 4.3471145 8.7447535 3.953125 7.7167969 3.953125 C 6.6754948 3.953125 5.7808033 4.3409359 5.0332031 5.1152344 C 4.2856029 5.88954 3.9121094 6.8642621 3.9121094 8.0390625 C 3.9121094 9.2272156 4.2856029 10.208123 5.0332031 10.982422 C 5.7808033 11.743375 6.7021693 12.123047 7.796875 12.123047 C 9.0117263 12.123047 9.9454565 11.636662 10.599609 10.662109 C 11.093559 11.636662 11.840546 12.123047 12.841797 12.123047 C 13.81635 12.123047 14.559112 11.729057 15.066406 10.941406 C 15.587061 10.153755 15.845703 9.1604902 15.845703 7.9589844 C 15.845703 5.8229836 15.098716 4.0007407 13.603516 2.4921875 C 12.108308 0.98363428 10.265569 0.22851562 8.0761719 0.22851562 z M 7.9375 5.4746094 C 8.6050056 5.4746094 9.1714208 5.7085302 9.6386719 6.1757812 C 10.119268 6.6430323 10.359375 7.264764 10.359375 8.0390625 C 10.359375 8.813361 10.119268 9.4331396 9.6386719 9.9003906 C 9.1714208 10.367642 8.6050056 10.601562 7.9375 10.601562 C 7.2700016 10.601562 6.6954475 10.367642 6.2148438 9.9003906 C 5.7475927 9.4331396 5.5136719 8.813361 5.5136719 8.0390625 C 5.5136719 7.264764 5.7475927 6.6430323 6.2148438 6.1757812 C 6.6954475 5.7085302 7.2700016 5.4746094 7.9375 5.4746094 z "
     id="path4" />
</svg>
